X:1
T:Andrew Ross
M:3/4
L:1/8
K:C
 E| EE G2 AA| DD C2 DD| EF G2 c2| AF E2 D2| EE G2 A2| DD C2 DD| EF G2 A2|\
 DC D2||
